X:1
T: The Marchioness of Huntly's Jig
C:William Marshall
R:Jig
Q:180
K:Bb
M:6/8
L:1/16
|:f2|d2f2d2 B6|F2B2F2 D6|B,4B2 f2d2B2|A2c2c2 c2d2e2|
d2f2d2 B6|F2B2F2 D6|E4g2 f2b2f2|d2B2B2 B4:|
|:de|f2e2d2 b2f2d2|f2e2d2 b2f2d2|f2g2a2 b2f2d2|A2c2c2 c4de|
|1f2e2d2 b2a2g2|f2e2d2 c2B2A2|G2A2B2 c2d2e2|d2B2B2 B4:|
|2f2e2d2 e2d2c2|B2A2G2 F2E2D2|E4g2 f2b2f2|d2B2B2 B4||
